icon/ir/align-left-box.svg

<svg stroke-width="1.5" viewBox="0 0 24 24" fill="none" xmlns="http://www.w3.org/2000/svg" height="1em" width="1em">
  <path d="M16.0041 3.995L15.993 4.005" stroke="currentColor" stroke-linecap="round" stroke-linejoin="round"/>
  <path d="M20.0041 3.995L19.993 4.005" stroke="currentColor" stroke-linecap="round" stroke-linejoin="round"/>
  <path d="M20.0041 7.995L19.993 8.005" stroke="currentColor" stroke-linecap="round" stroke-linejoin="round"/>
  <path d="M20.0041 11.995L19.993 12.005" stroke="currentColor" stroke-linecap="round" stroke-linejoin="round"/>
  <path d="M20.0041 15.995L19.993 16.005" stroke="currentColor" stroke-linecap="round" stroke-linejoin="round"/>
  <path d="M20.0041 19.995L19.993 20.005" stroke="currentColor" stroke-linecap="round" stroke-linejoin="round"/>
  <path d="M16.0041 19.995L15.993 20.005" stroke="currentColor" stroke-linecap="round" stroke-linejoin="round"/>
  <path d="M12.0059 3.995L4.00586 3.995L4.00586 19.995H12.0059L12.0059 3.995Z" stroke="currentColor" stroke-linecap="round" stroke-linejoin="round"/>
</svg>

<svg width="24" height="24" stroke-width="1.5" fill="none" xmlns="http://www.w3.org/2000/svg"><path d="m16.004 3.995-.011.01M20.004 3.995l-.011.01M20.004 7.995l-.011.01M20.004 11.995l-.011.01M20.004 15.995l-.011.01M20.004 19.995l-.011.01M16.004 19.995l-.011.01M12.006 3.995h-8v16h8v-16Z" stroke="currentColor" stroke-linecap="round" stroke-linejoin="round"/></svg>
